X: 20648
T: John Stenson's
R: reel
M: 4/4
K: Amajor
|:c|ABcA B2cB|ABcA BF F2|ABcA B3c|e2 cA BAFA|
ABcA B2cB|ABcA BAFA|(3Bcd dc dfed|1 cABG A3B:|2 cABG ABcd||
|:e2 cA e2 cA|e2 cA BAFA|e2 cA e2 cA|.B.B.Bc BAFA|
e2 cA e2 cA|e2 cA BAFA|(3Bcd dc dfed:|1 cABG ABcd:|2 cdBc A2cB||

